img/idea-bg-1.svg

<svg width="346" height="520" viewBox="0 0 346 520" fill="none" xmlns="http://www.w3.org/2000/svg">
<path d="M87.0347 -760.025L1.00001 -809.769L1 -909.256L87.0346 -959L173.069 -909.256V-809.769L87.0347 -760.025Z" fill="#222222"/>
<path d="M258.863 -760.025L172.829 -809.769V-909.256L258.863 -959L344.898 -909.256V-809.769L258.863 -760.025Z" fill="#222222"/>
<path d="M87.0347 -461.279L1.00001 -511.022L1 -610.51L87.0346 -660.253L173.069 -610.51V-511.022L87.0347 -461.279Z" fill="#222222"/>
<path d="M258.863 -461.279L172.829 -511.022V-610.51L258.863 -660.253L344.898 -610.51V-511.022L258.863 -461.279Z" fill="#222222"/>
<path d="M87.0347 -162.532L1.00001 -212.276L1 -311.763L87.0346 -361.507L173.069 -311.763V-212.276L87.0347 -162.532Z" fill="#222222"/>
<path d="M258.863 -162.532L172.829 -212.276V-311.763L258.863 -361.507L344.898 -311.763V-212.276L258.863 -162.532Z" fill="#222222"/>
<path d="M87.0347 136.214L1.00001 86.4707L1 -13.0168L87.0346 -62.7605L173.069 -13.0168V86.4707L87.0347 136.214Z" fill="#222222"/>
<path d="M258.863 136.214L172.829 86.4707V-13.0168L258.863 -62.7605L344.898 -13.0168V86.4707L258.863 136.214Z" fill="#222222"/>
<path d="M87.0347 434.961L1.00001 385.217L1 285.73L87.0346 235.986L173.069 285.73V385.217L87.0347 434.961Z" fill="#222222"/>
<path d="M258.863 434.961L172.829 385.217V285.73L258.863 235.986L344.898 285.73V385.217L258.863 434.961Z" fill="#222222"/>
<path d="M87.0347 733.707L1.00001 683.964L1 584.476L87.0346 534.733L173.069 584.476V683.964L87.0347 733.707Z" fill="#222222"/>
<path d="M258.863 733.707L172.829 683.964V584.476L258.863 534.733L344.898 584.476V683.964L258.863 733.707Z" fill="#222222"/>
<path d="M87.0347 1032.45L1.00001 982.71L1 883.223L87.0346 833.479L173.069 883.223V982.71L87.0347 1032.45Z" fill="#222222"/>
<path d="M258.863 1032.45L172.829 982.71V883.223L258.863 833.479L344.898 883.223V982.71L258.863 1032.45Z" fill="#222222"/>
<path d="M87.0347 1331.2L1.00001 1281.46L1 1181.97L87.0346 1132.23L173.069 1181.97V1281.46L87.0347 1331.2Z" fill="#222222"/>
<path d="M258.863 1331.2L172.829 1281.46V1181.97L258.863 1132.23L344.898 1181.97V1281.46L258.863 1331.2Z" fill="#222222"/>
<path d="M172.564 -610.226L86.5298 -659.969L86.5297 -759.457L172.564 -809.2L258.599 -759.457V-659.969L172.564 -610.226Z" fill="#222222"/>
<path d="M172.564 -311.479L86.5298 -361.223L86.5297 -460.71L172.564 -510.454L258.599 -460.71V-361.223L172.564 -311.479Z" fill="#222222"/>
<path d="M172.564 -12.7325L86.5298 -62.4762L86.5297 -161.964L172.564 -211.707L258.599 -161.964V-62.4762L172.564 -12.7325Z" fill="#222222"/>
<path d="M172.564 286.014L86.5298 236.27L86.5297 136.783L172.564 87.0392L258.599 136.783V236.27L172.564 286.014Z" fill="#222222"/>
<path d="M172.564 584.76L86.5298 535.017L86.5297 435.529L172.564 385.786L258.599 435.529V535.017L172.564 584.76Z" fill="#222222"/>
<path d="M172.564 883.507L86.5298 833.763L86.5297 734.276L172.564 684.532L258.599 734.276V833.763L172.564 883.507Z" fill="#222222"/>
<path d="M172.564 1182.25L86.5298 1132.51L86.5297 1033.02L172.564 983.279L258.599 1033.02V1132.51L172.564 1182.25Z" fill="#222222"/>
<path d="M172.564 1481L86.5298 1431.26L86.5297 1331.77L172.564 1282.03L258.599 1331.77V1431.26L172.564 1481Z" fill="#222222"/>
<path d="M87.1365 -859.513L1.10186 -909.256L87.1365 -959M87.1365 -859.513L173.171 -909.256M87.1365 -859.513L87.1365 -760.025M172.967 -909.256L86.9328 -959M258.965 -859.513L172.931 -909.256L258.965 -959M258.965 -859.513L345 -909.256M258.965 -859.513L258.965 -760.025M344.796 -909.256L258.762 -959M344.658 -809.769V-909.256M87.1365 -560.766L1.10186 -610.51L87.1365 -660.253M87.1365 -560.766L173.171 -610.51M87.1365 -560.766L87.1365 -461.279M172.967 -610.51L86.9328 -660.253M258.965 -560.766L172.931 -610.51L258.965 -660.253M258.965 -560.766L345 -610.51M258.965 -560.766L258.965 -461.279M344.796 -610.51L258.762 -660.253M344.658 -511.022V-610.51M87.1365 -262.02L1.10186 -311.763L87.1365 -361.507M87.1365 -262.02L173.171 -311.763M87.1365 -262.02L87.1365 -162.532M172.967 -311.763L86.9328 -361.507M258.965 -262.02L172.931 -311.763L258.965 -361.507M258.965 -262.02L345 -311.763M258.965 -262.02L258.965 -162.532M344.796 -311.763L258.762 -361.507M344.658 -212.276V-311.763M87.1365 36.7269L1.10186 -13.0168L87.1365 -62.7605M87.1365 36.7269L173.171 -13.0168M87.1365 36.7269L87.1365 136.214M172.967 -13.0168L86.9328 -62.7605M258.965 36.7269L172.931 -13.0168L258.965 -62.7605M258.965 36.7269L345 -13.0168M258.965 36.7269L258.965 136.214M344.796 -13.0168L258.762 -62.7605M344.658 86.4707V-13.0168M87.1365 335.473L1.10186 285.73L87.1365 235.986M87.1365 335.473L173.171 285.73M87.1365 335.473L87.1365 434.961M172.967 285.73L86.9328 235.986M258.965 335.473L172.931 285.73L258.965 235.986M258.965 335.473L345 285.73M258.965 335.473L258.965 434.961M344.796 285.73L258.762 235.986M344.658 385.217V285.73M87.1365 634.22L1.10186 584.476L87.1365 534.733M87.1365 634.22L173.171 584.476M87.1365 634.22L87.1365 733.707M172.967 584.476L86.9328 534.733M258.965 634.22L172.931 584.476L258.965 534.733M258.965 634.22L345 584.476M258.965 634.22L258.965 733.707M344.796 584.476L258.762 534.733M344.658 683.964V584.476M87.1365 932.966L1.10186 883.223L87.1365 833.479M87.1365 932.966L173.171 883.223M87.1365 932.966L87.1365 1032.45M172.967 883.223L86.9328 833.479M258.965 932.966L172.931 883.223L258.965 833.479M258.965 932.966L345 883.223M258.965 932.966L258.965 1032.45M344.796 883.223L258.762 833.479M344.658 982.71V883.223M87.1365 1231.71L1.10186 1181.97L87.1365 1132.23M87.1365 1231.71L173.171 1181.97M87.1365 1231.71L87.1365 1331.2M172.967 1181.97L86.9328 1132.23M258.965 1231.71L172.931 1181.97L258.965 1132.23M258.965 1231.71L345 1181.97M258.965 1231.71L258.965 1331.2M344.796 1181.97L258.762 1132.23M344.658 1281.46V1181.97M172.666 -709.713L86.6316 -759.457L172.666 -809.2M172.666 -709.713L258.701 -759.457M172.666 -709.713L172.666 -610.226M258.497 -759.457L172.463 -809.2M258.46 -759.457L344.495 -809.2M344.393 -610.226L258.359 -659.969V-759.457L344.393 -809.2M172.666 -410.966L86.6316 -460.71L172.666 -510.454M172.666 -410.966L258.701 -460.71M172.666 -410.966L172.666 -311.479M258.497 -460.71L172.463 -510.454M258.46 -460.71L344.495 -510.454M344.393 -311.479L258.359 -361.223V-460.71L344.393 -510.454M172.666 -112.22L86.6316 -161.964L172.666 -211.707M172.666 -112.22L258.701 -161.964M172.666 -112.22L172.666 -12.7325M258.497 -161.964L172.463 -211.707M258.46 -161.964L344.495 -211.707M344.393 -12.7325L258.359 -62.4762V-161.964L344.393 -211.707M172.666 186.526L86.6316 136.783L172.666 87.0392M172.666 186.526L258.701 136.783M172.666 186.526L172.666 286.014M258.497 136.783L172.463 87.0392M258.46 136.783L344.495 87.0392M344.393 286.014L258.359 236.27V136.783L344.393 87.0392M172.666 485.273L86.6316 435.529L172.666 385.786M172.666 485.273L258.701 435.529M172.666 485.273L172.666 584.76M258.497 435.529L172.463 385.786M258.46 435.529L344.495 385.786M344.393 584.76L258.359 535.017V435.529L344.393 385.786M172.666 784.02L86.6316 734.276L172.666 684.532M172.666 784.02L258.701 734.276M172.666 784.02L172.666 883.507M258.497 734.276L172.463 684.532M258.46 734.276L344.495 684.532M344.393 883.507L258.359 833.763V734.276L344.393 684.532M172.666 1082.77L86.6316 1033.02L172.666 983.279M172.666 1082.77L258.701 1033.02M172.666 1082.77L172.666 1182.25M258.497 1033.02L172.463 983.279M258.46 1033.02L344.495 983.279M344.393 1182.25L258.359 1132.51V1033.02L344.393 983.279M172.666 1381.51L86.6316 1331.77L172.666 1282.03M172.666 1381.51L258.701 1331.77M172.666 1381.51L172.666 1481M258.497 1331.77L172.463 1282.03M258.46 1331.77L344.495 1282.03M258.359 1431.26V1331.77L344.393 1282.03M87.0347 -760.025L1.00001 -809.769L1 -909.256L87.0346 -959L173.069 -909.256V-809.769L87.0347 -760.025ZM258.863 -760.025L172.829 -809.769V-909.256L258.863 -959L344.898 -909.256V-809.769L258.863 -760.025ZM87.0347 -461.279L1.00001 -511.022L1 -610.51L87.0346 -660.253L173.069 -610.51V-511.022L87.0347 -461.279ZM258.863 -461.279L172.829 -511.022V-610.51L258.863 -660.253L344.898 -610.51V-511.022L258.863 -461.279ZM87.0347 -162.532L1.00001 -212.276L1 -311.763L87.0346 -361.507L173.069 -311.763V-212.276L87.0347 -162.532ZM258.863 -162.532L172.829 -212.276V-311.763L258.863 -361.507L344.898 -311.763V-212.276L258.863 -162.532ZM87.0347 136.214L1.00001 86.4707L1 -13.0168L87.0346 -62.7605L173.069 -13.0168V86.4707L87.0347 136.214ZM258.863 136.214L172.829 86.4707V-13.0168L258.863 -62.7605L344.898 -13.0168V86.4707L258.863 136.214ZM87.0347 434.961L1.00001 385.217L1 285.73L87.0346 235.986L173.069 285.73V385.217L87.0347 434.961ZM258.863 434.961L172.829 385.217V285.73L258.863 235.986L344.898 285.73V385.217L258.863 434.961ZM87.0347 733.707L1.00001 683.964L1 584.476L87.0346 534.733L173.069 584.476V683.964L87.0347 733.707ZM258.863 733.707L172.829 683.964V584.476L258.863 534.733L344.898 584.476V683.964L258.863 733.707ZM87.0347 1032.45L1.00001 982.71L1 883.223L87.0346 833.479L173.069 883.223V982.71L87.0347 1032.45ZM258.863 1032.45L172.829 982.71V883.223L258.863 833.479L344.898 883.223V982.71L258.863 1032.45ZM87.0347 1331.2L1.00001 1281.46L1 1181.97L87.0346 1132.23L173.069 1181.97V1281.46L87.0347 1331.2ZM258.863 1331.2L172.829 1281.46V1181.97L258.863 1132.23L344.898 1181.97V1281.46L258.863 1331.2ZM172.564 -610.226L86.5298 -659.969L86.5297 -759.457L172.564 -809.2L258.599 -759.457V-659.969L172.564 -610.226ZM172.564 -311.479L86.5298 -361.223L86.5297 -460.71L172.564 -510.454L258.599 -460.71V-361.223L172.564 -311.479ZM172.564 -12.7325L86.5298 -62.4762L86.5297 -161.964L172.564 -211.707L258.599 -161.964V-62.4762L172.564 -12.7325ZM172.564 286.014L86.5298 236.27L86.5297 136.783L172.564 87.0392L258.599 136.783V236.27L172.564 286.014ZM172.564 584.76L86.5298 535.017L86.5297 435.529L172.564 385.786L258.599 435.529V535.017L172.564 584.76ZM172.564 883.507L86.5298 833.763L86.5297 734.276L172.564 684.532L258.599 734.276V833.763L172.564 883.507ZM172.564 1182.25L86.5298 1132.51L86.5297 1033.02L172.564 983.279L258.599 1033.02V1132.51L172.564 1182.25ZM172.564 1481L86.5298 1431.26L86.5297 1331.77L172.564 1282.03L258.599 1331.77V1431.26L172.564 1481Z" stroke="#BC9B77" stroke-linejoin="round"/>
</svg>

<svg width="346" height="520" fill="none" xmlns="http://www.w3.org/2000/svg"><path d="M87.035-760.025L1-809.769v-99.487L87.035-959l86.034 49.744v99.487l-86.034 49.744z" fill="#222"/><path d="M258.863-760.025l-86.034-49.744v-99.487L258.863-959l86.035 49.744v99.487l-86.035 49.744zM87.035-461.279L1-511.022v-99.488l86.035-49.743 86.034 49.743v99.488l-86.034 49.743z" fill="#222"/><path d="M258.863-461.279l-86.034-49.743v-99.488l86.034-49.743 86.035 49.743v99.488l-86.035 49.743zM87.035-162.532L1-212.276v-99.487l86.035-49.744 86.034 49.744v99.487l-86.034 49.744z" fill="#222"/><path d="M258.863-162.532l-86.034-49.744v-99.487l86.034-49.744 86.035 49.744v99.487l-86.035 49.744zM87.035 136.214L1 86.471v-99.488L87.035-62.76l86.034 49.743v99.488l-86.034 49.743z" fill="#222"/><path d="M258.863 136.214l-86.034-49.743v-99.488l86.034-49.743 86.035 49.743v99.488l-86.035 49.743zM87.035 434.961L1 385.217V285.73l86.035-49.744 86.034 49.744v99.487l-86.034 49.744z" fill="#222"/><path d="M258.863 434.961l-86.034-49.744V285.73l86.034-49.744 86.035 49.744v99.487l-86.035 49.744zM87.035 733.707L1 683.964v-99.488l86.035-49.743 86.034 49.743v99.488l-86.034 49.743z" fill="#222"/><path d="M258.863 733.707l-86.034-49.743v-99.488l86.034-49.743 86.035 49.743v99.488l-86.035 49.743zM87.035 1032.45L1 982.71v-99.487l86.035-49.744 86.034 49.744v99.487l-86.034 49.74z" fill="#222"/><path d="M258.863 1032.45l-86.034-49.74v-99.487l86.034-49.744 86.035 49.744v99.487l-86.035 49.74zM87.035 1331.2L1 1281.46v-99.49l86.035-49.74 86.034 49.74v99.49l-86.034 49.74z" fill="#222"/><path d="M258.863 1331.2l-86.034-49.74v-99.49l86.034-49.74 86.035 49.74v99.49l-86.035 49.74zM172.564-610.226L86.53-659.969v-99.488l86.034-49.743 86.035 49.743v99.488l-86.035 49.743zm0 298.747L86.53-361.223v-99.487l86.034-49.744 86.035 49.744v99.487l-86.035 49.744zm0 298.747L86.53-62.477v-99.488l86.034-49.743 86.035 49.743v99.488l-86.035 49.743zm0 298.746L86.53 236.27v-99.487l86.034-49.744 86.035 49.744v99.487l-86.035 49.744zm0 298.746L86.53 535.017v-99.488l86.034-49.743 86.035 49.743v99.488l-86.035 49.743zm0 298.747L86.53 833.763v-99.487l86.034-49.744 86.035 49.744v99.487l-86.035 49.744z" fill="#222"/><path d="M172.564 1182.25l-86.034-49.74v-99.49l86.034-49.741 86.035 49.741v99.49l-86.035 49.74zm0 298.75l-86.034-49.74v-99.49l86.034-49.74 86.035 49.74v99.49L172.564 1481z" fill="#222"/><path d="M87.136-859.513L1.102-909.256 87.136-959m0 99.487l86.035-49.743m-86.034 49.743v99.488m85.83-149.231L86.933-959m172.032 99.487l-86.034-49.743L258.965-959m0 99.487L345-909.256m-86.035 49.743v99.488m85.831-149.231L258.762-959m85.896 149.231v-99.487M87.136-560.766L1.103-610.51l86.034-49.743m0 99.487l86.035-49.744m-86.034 49.744v99.487m85.83-149.231l-86.034-49.743m172.032 99.487l-86.034-49.744 86.034-49.743m0 99.487L345-610.51m-86.035 49.744v99.487m85.831-149.231l-86.034-49.743m85.896 149.231v-99.488M87.136-262.02L1.103-311.763l86.034-49.744m0 99.487l86.035-49.743M87.137-262.02v99.488m85.83-149.231l-86.034-49.744m172.032 99.487l-86.034-49.743 86.034-49.744m0 99.487L345-311.763m-86.035 49.743v99.488m85.831-149.231l-86.034-49.744m85.896 149.231v-99.487M87.136 36.727L1.103-13.017 87.136-62.76m0 99.487l86.035-49.744M87.137 36.727v99.487m85.83-149.23L86.933-62.762m172.032 99.488l-86.034-49.744 86.034-49.743m0 99.487L345-13.017m-86.035 49.744v99.487m85.831-149.23l-86.034-49.745m85.896 149.232v-99.488M87.136 335.473L1.103 285.73l86.034-49.744m0 99.487l86.035-49.743m-86.034 49.743v99.488m85.83-149.231l-86.034-49.744m172.032 99.487l-86.034-49.743 86.034-49.744m0 99.487L345 285.73m-86.035 49.743v99.488m85.831-149.231l-86.034-49.744m85.896 149.231V285.73M87.136 634.22L1.103 584.476l86.034-49.743m0 99.487l86.035-49.744M87.137 634.22v99.487m85.83-149.231l-86.034-49.743m172.032 99.487l-86.034-49.744 86.034-49.743m0 99.487L345 584.476m-86.035 49.744v99.487m85.831-149.231l-86.034-49.743m85.896 149.231v-99.488M87.136 932.966L1.103 883.223l86.034-49.744m0 99.487l86.035-49.743m-86.034 49.743v99.484m85.83-149.227l-86.034-49.744m172.032 99.487l-86.034-49.743 86.034-49.744m0 99.487L345 883.223m-86.035 49.743v99.484m85.831-149.227l-86.034-49.744m85.896 149.231v-99.487M87.136 1231.71l-86.034-49.74 86.034-49.74m0 99.48l86.035-49.74m-86.034 49.74v99.49m85.83-149.23l-86.034-49.74m172.032 99.48l-86.034-49.74 86.034-49.74m0 99.48L345 1181.97m-86.035 49.74v99.49m85.831-149.23l-86.034-49.74m85.896 149.23v-99.49M172.666-709.713l-86.034-49.744 86.034-49.743m0 99.487l86.035-49.744m-86.035 49.744v99.487m85.831-149.231L172.463-809.2m85.997 49.743l86.035-49.743m-.102 198.974l-86.034-49.743v-99.488l86.034-49.743M172.666-410.966L86.632-460.71l86.034-49.744m0 99.488l86.035-49.744m-86.035 49.744v99.487m85.831-149.231l-86.034-49.744m85.997 49.744l86.035-49.744m-.102 198.975l-86.034-49.744v-99.487l86.034-49.744M172.666-112.22l-86.034-49.744 86.034-49.743m0 99.487l86.035-49.744m-86.035 49.744v99.487m85.831-149.231l-86.034-49.743m85.997 49.743l86.035-49.743m-.102 198.975l-86.034-49.744v-99.488l86.034-49.743M172.666 186.526l-86.034-49.743 86.034-49.744m0 99.487l86.035-49.743m-86.035 49.743v99.488m85.831-149.231l-86.034-49.744m85.997 49.744l86.035-49.744m-.102 198.975l-86.034-49.744v-99.487l86.034-49.744M172.666 485.273l-86.034-49.744 86.034-49.743m0 99.487l86.035-49.744m-86.035 49.744v99.487m85.831-149.231l-86.034-49.743m85.997 49.743l86.035-49.743m-.102 198.974l-86.034-49.743v-99.488l86.034-49.743M172.666 784.02l-86.034-49.744 86.034-49.744m0 99.488l86.035-49.744m-86.035 49.744v99.487m85.831-149.231l-86.034-49.744m85.997 49.744l86.035-49.744m-.102 198.975l-86.034-49.744v-99.487l86.034-49.744M172.666 1082.77l-86.034-49.75 86.034-49.741m0 99.491l86.035-49.75m-86.035 49.75v99.48m85.831-149.23l-86.034-49.741m85.997 49.741l86.035-49.741m-.102 198.971l-86.034-49.74v-99.49l86.034-49.741M172.666 1381.51l-86.034-49.74 86.034-49.74m0 99.48l86.035-49.74m-86.035 49.74V1481m85.831-149.23l-86.034-49.74m85.997 49.74l86.035-49.74m-86.136 149.23v-99.49l86.034-49.74M87.035-760.025L1-809.769v-99.487L87.035-959l86.034 49.744v99.487l-86.034 49.744zm171.828 0l-86.034-49.744v-99.487L258.863-959l86.035 49.744v99.487l-86.035 49.744zM87.035-461.279L1-511.022v-99.488l86.035-49.743 86.034 49.743v99.488l-86.034 49.743zm171.828 0l-86.034-49.743v-99.488l86.034-49.743 86.035 49.743v99.488l-86.035 49.743zM87.035-162.532L1-212.276v-99.487l86.035-49.744 86.034 49.744v99.487l-86.034 49.744zm171.828 0l-86.034-49.744v-99.487l86.034-49.744 86.035 49.744v99.487l-86.035 49.744zM87.035 136.214L1 86.471v-99.488L87.035-62.76l86.034 49.743v99.488l-86.034 49.743zm171.828 0l-86.034-49.743v-99.488l86.034-49.743 86.035 49.743v99.488l-86.035 49.743zM87.035 434.961L1 385.217V285.73l86.035-49.744 86.034 49.744v99.487l-86.034 49.744zm171.828 0l-86.034-49.744V285.73l86.034-49.744 86.035 49.744v99.487l-86.035 49.744zM87.035 733.707L1 683.964v-99.488l86.035-49.743 86.034 49.743v99.488l-86.034 49.743zm171.828 0l-86.034-49.743v-99.488l86.034-49.743 86.035 49.743v99.488l-86.035 49.743zM87.035 1032.45L1 982.71v-99.487l86.035-49.744 86.034 49.744v99.487l-86.034 49.74zm171.828 0l-86.034-49.74v-99.487l86.034-49.744 86.035 49.744v99.487l-86.035 49.74zM87.035 1331.2L1 1281.46v-99.49l86.035-49.74 86.034 49.74v99.49l-86.034 49.74zm171.828 0l-86.034-49.74v-99.49l86.034-49.74 86.035 49.74v99.49l-86.035 49.74zM172.564-610.226L86.53-659.969v-99.488l86.034-49.743 86.035 49.743v99.488l-86.035 49.743zm0 298.747L86.53-361.223v-99.487l86.034-49.744 86.035 49.744v99.487l-86.035 49.744zm0 298.746L86.53-62.476v-99.488l86.034-49.743 86.035 49.743v99.488l-86.035 49.743zm0 298.747L86.53 236.27v-99.487l86.034-49.744 86.035 49.744v99.487l-86.035 49.744zm0 298.746L86.53 535.017v-99.488l86.034-49.743 86.035 49.743v99.488l-86.035 49.743zm0 298.747L86.53 833.763v-99.487l86.034-49.744 86.035 49.744v99.487l-86.035 49.744zm0 298.743l-86.034-49.74v-99.49l86.034-49.741 86.035 49.741v99.49l-86.035 49.74zm0 298.75l-86.034-49.74v-99.49l86.034-49.74 86.035 49.74v99.49L172.564 1481z" stroke="#BC9B77" stroke-linejoin="round"/></svg>
